X:1
T:Title
%%score { ( 1 3 ) | ( 2 4 ) }
L:1/8
M:4/4
K:G
V:1 treble nm="Grand Piano"
V:3 treble 
V:2 treble 
V:4 treble 
V:1
 z4 z2[Q:1/4=92] G>A | B2 (3DGB [FA]2 (3DFA | G6[K:bass][K:treble] z2 | [FA]2 G>A B2 A>G | %4
 A6 (3BBc | d2 A>B c2 G>A | B2 E>[^DF] [=DG]2 F>E | D2 G>[GB] [Fd]2 [CFA]>[DFB] |[M:3/4] [B,DG]6 | %9
[M:1/4] (3z AB |[M:4/4] c6 z2 | B6 z2 | [FA]2 [FA]>[FA] [FA]2 [Fd]>[Fc] | B6 (3GAB | c6 z2 | %15
 B6 z2 | [FA]2 [Gd]>[Gd] [Fd]2 [FA]>[FB] |[M:3/4] G6 |] %18
V:2
 z4 z2 [G,B,D]>[G,CD] | [G,DG]2 (3[G,B,][G,B,D][G,DG][K:bass] [D,C]2 (3[D,F,][D,A,D][D,CD] | %2
 [G,B,D]6 (3[D,A,D][D,A,D][D,B,] | [D,C]2 [D,B,D]>[D,F,D] [G,D]2 [F,A,D]>[E,A,^C] | %4
 [D,F,D]6 (3[G,D][G,D][G,D] | [F,A,D]2 [=F,A,^D]>[F,A,D] [E,G,E]2 [^D,G,^C]>[D,G,C] | %6
 [D,G,D]2 [C,G,]>[C,A,] [B,,G,]2 [^C,G,_B,]>[C,G,B,] | [D,G,B,]2 [D,B,D]>[D,B,] [D,A,]2 D,>D, | %8
[M:3/4] G,,6 |[M:1/4][K:treble] (3GF=F |[M:4/4] E6[K:bass] z2 | D6[K:treble] z2 | %12
 [D,D]2 [D,D]>[D,D] [D,D]2 [D,A,]>[D,D] | [G,DG]6 (3z F=F | E6[K:bass] z2 | D6[K:treble] z2 | %16
 [D,D]2 [D,B,]>[D,B,] [D,A,]2 [D,C]>[D,D] |[M:3/4] z2 C>C B,2 |] %18
V:3
 x8 | x8 | z2[K:bass] (3E,D,B,, G,,2[K:treble] (3FFG | x8 | x8 | x8 | x8 | x8 |[M:3/4] x6 | %9
[M:1/4] x2 |[M:4/4] z2 (3G,G,G, G,2 (3GGA | z2 (3G,G,G, G,2 (3GAB | x8 | x8 | %14
 z2 (3G,G,G, G,2 (3GGA | z2 (3G,G,G, G,2 (3GAB | x8 |[M:3/4] B,2 E>E D2 |] %18
V:4
 x8 | x4[K:bass] x4 | x8 | x8 | x8 | x8 | x8 | x8 |[M:3/4] x6 |[M:1/4][K:treble] x2 | %10
[M:4/4] z2[K:bass] (3C,C,C, C,2 (3EE^D | z2 (3G,,G,,G,, G,,2[K:treble] (3[G,B,D][G,CD][G,DG] | x8 | %13
 x8 | z2[K:bass] (3C,C,C, C,2 (3EE^D | z2 (3G,,G,,G,, G,,2[K:treble] (3[G,B,D][G,CD][G,DG] | x8 | %17
[M:3/4] [G,,G,]6 |] %18

